X:1
T:Bob Dylan
M:4/4
L:1/8
Q:1/4=96
K:C
G2 G2 A2 B2 | c4 z4 | c2 c2 B2 A2 | G4 E2 z2 |
E2 G2 G2 A2 | B2 c2 d2 c2 | B2 A2 G2 E2 | G4 z4 |
E2 E2 G2 A2 | B2 B2 c2 B2 | A2 G2 E2 D2 | E4 z4 |
G2 A2 B2 c2 | d4 c2 B2 | A2 G2 E2 G2 | C6 z2 |
